X: 76
T: Song as the Boys Flew Away
N: Derived from pawnee76.krn
O: Oklahoma, U.S.A.
N: from Pawnee Music by Frances Densmore, 1926
Z: transcribed to **kern format by David Huron, August 2000
C: Skidi and Chaui Bands, 1919
L: 1/8
M: 2/4
Q: 1/4=88
K: C clef=treble
%%linebreak <none>
E/ [I:setbarnb 1]| 
E> E E3/ E/ | 
E D C C | 
!fermata!A,> A, A,3/ A,/ | 
!fermata!A,> A, A,3/ E/ | 
E> E E3/ E/ | 
E D C C | 
!fermata!A,> A, A,3/ A,/ | 
!fermata!A,> A, A,3/ |]  



